X: 12793
T: Fear Mór Smaointe
R: jig
M: 6/8
K: Gmajor
G,S||B,DE G2E|GAB d2e|dBA GAB|AGE D2:|
B,|:CEG cGe|dcA FED|B,DG BGd|ged BAG|EcE EcE|
DBA GFG|AdA FAF|1 GBA GAB:|2 GBG DB,SG,||

